X:1
T:Paddy O'Brien's March
Z:Ted Hastings <ted@hastings.nu>
R:March
M:2/4
L:1/8
K:G
Bc \
[| dG Bd  | ge dB  | Ae cA | E2 A>G | FD  FA  | dc ed | dc AB | B2 B>c |
|  dG Bd  | g2 f>g | ag ec | A2 f>e | d^c =cA | FD EF | A2 G2 | G2 Bc ||
|| d2 G>f | gd Bc  | dB cA | G2 AB  | ce  a^g | ab ag | f2 d2 | d2 B>c |
|  dB fd  | BG dB  | Ae cA | E2 f>e | d^c =cA | FD EF | A2 G2 | G2 Bc |]
